public/sprites/development.svg

<svg width="0" height="0" class="hidden"><symbol viewBox="0 0 24 24" fill="none" xmlns="http://www.w3.org/2000/svg" id="container"><g id="container"><path id="Icon" d="M20.5 7.27783L12 12.0001M12 12.0001L3.49997 7.27783M12 12.0001L12 21.5001M21 16.0586V7.94153C21 7.59889 21 7.42757 20.9495 7.27477C20.9049 7.13959 20.8318 7.01551 20.7354 6.91082C20.6263 6.79248 20.4766 6.70928 20.177 6.54288L12.777 2.43177C12.4934 2.27421 12.3516 2.19543 12.2015 2.16454C12.0685 2.13721 11.9315 2.13721 11.7986 2.16454C11.6484 2.19543 11.5066 2.27421 11.223 2.43177L3.82297 6.54288C3.52345 6.70928 3.37369 6.79248 3.26463 6.91082C3.16816 7.01551 3.09515 7.13959 3.05048 7.27477C3 7.42757 3 7.59889 3 7.94153V16.0586C3 16.4013 3 16.5726 3.05048 16.7254C3.09515 16.8606 3.16816 16.9847 3.26463 17.0893C3.37369 17.2077 3.52345 17.2909 3.82297 17.4573L11.223 21.5684C11.5066 21.726 11.6484 21.8047 11.7986 21.8356C11.9315 21.863 12.0685 21.863 12.2015 21.8356C12.3516 21.8047 12.4934 21.726 12.777 21.5684L20.177 17.4573C20.4766 17.2909 20.6263 17.2077 20.7354 17.0893C20.8318 16.9847 20.9049 16.8606 20.9495 16.7254C21 16.5726 21 16.4013 21 16.0586Z" stroke="currentColor" stroke-width="2" stroke-linecap="round" stroke-linejoin="round"></path></g></symbol></svg>

<svg width="0" height="0"><symbol xmlns="http://www.w3.org/2000/svg" id="container" fill="none" viewBox="0 0 24 24"><path id="Icon" stroke="currentColor" stroke-linecap="round" stroke-linejoin="round" stroke-width="2" d="M20.5 7.278 12 12m0 0L3.5 7.278M12 12v9.5m9-5.441V7.942c0-.343 0-.514-.05-.667a1 1 0 0 0-.215-.364c-.109-.119-.258-.202-.558-.368l-7.4-4.111c-.284-.158-.425-.237-.575-.267a1 1 0 0 0-.403 0c-.15.03-.292.11-.576.267l-7.4 4.11c-.3.167-.45.25-.558.369a1 1 0 0 0-.215.364C3 7.428 3 7.599 3 7.942v8.117c0 .342 0 .514.05.666a1 1 0 0 0 .215.364c.109.119.258.202.558.368l7.4 4.111c.284.158.425.237.576.268.133.027.27.027.402 0 .15-.031.292-.11.576-.268l7.4-4.11c.3-.167.45-.25.558-.369a.999.999 0 0 0 .215-.364c.05-.152.05-.324.05-.666Z"/></symbol></svg>
